static/img/icons/linkarrowred.svg

<svg fill="none" viewBox=".21 .25 11.69 10.18" xmlns="http://www.w3.org/2000/svg"><path d="m6.81501 10.4367 5.09089-5.09091-5.09089-5.090907-.875.874997 3.60231 3.59091h-9.329582v1.25h9.329582l-3.60231 3.60227z" fill="#e35851"/></svg>

<svg width="12" height="11" viewBox="0 0 12 11" fill="none" xmlns="http://www.w3.org/2000/svg">
<path d="M6.81501 10.4367L11.9059 5.34579L6.81501 0.254883L5.94001 1.12988L9.54232 4.72079H0.212738V5.97079H9.54232L5.94001 9.57306L6.81501 10.4367Z" fill="#E35851"/>
</svg>
